X:9
T:The Galway High Reel
T:The Other High Reel
T:The High Reel
T:A Bangor Reel (Davy Muir)
T:"The Beehive" (Rebecca Knorr, Edinburgh)
T:"Not the Beehive"
C:Traditional
S:Davy Muir (fiddle), Glasgow
S:Dianna Bullier (fiddle), Bangor, Co. Down
N:Play 3 times
N:The Corofin Plain Set, Figure 5, Tune 2 of 3
Z:Gordon Turnbull, Edinburgh
Z:gturnbull@theflow.org.uk
Z:http://www.theflow.org.uk
D:Oisin, 'The Jeannie C'
D:Moher, "Out on the Ocean"
R:reel
L:1/8
M:C
K:D
f2 df ecAG | FDFG Ad=cA | G2 FG Adde  | f2 ed cdeg |
f2 df ecAG | FDFG Ad=cA | G2 FG Add=c  | A2 GE FD D2 :||
a2 fa dafa | a2 fa dafa | b2 gb ebgb | e~g3 e~g3 |
a2 fa dafa | a2 fa dafa | bgaf gfed | ABAG FD D2 :||
